public/calendar.svg

<svg width="28" height="28" viewBox="0 0 28 28" fill="none" xmlns="http://www.w3.org/2000/svg">
<path d="M9.33334 2.33334V5.83334" stroke="white" stroke-width="1.5" stroke-miterlimit="10" stroke-linecap="round" stroke-linejoin="round"/>
<path d="M18.6667 2.33334V5.83334" stroke="white" stroke-width="1.5" stroke-miterlimit="10" stroke-linecap="round" stroke-linejoin="round"/>
<path d="M4.08334 10.605H23.9167" stroke="white" stroke-width="1.5" stroke-miterlimit="10" stroke-linecap="round" stroke-linejoin="round"/>
<path d="M24.5 9.91668V19.8333C24.5 23.3333 22.75 25.6667 18.6667 25.6667H9.33333C5.25 25.6667 3.5 23.3333 3.5 19.8333V9.91668C3.5 6.41668 5.25 4.08334 9.33333 4.08334H18.6667C22.75 4.08334 24.5 6.41668 24.5 9.91668Z" stroke="white" stroke-width="1.5" stroke-miterlimit="10" stroke-linecap="round" stroke-linejoin="round"/>
<path d="M18.3105 15.9834H18.321" stroke="white" stroke-width="2" stroke-linecap="round" stroke-linejoin="round"/>
<path d="M18.3105 19.4834H18.321" stroke="white" stroke-width="2" stroke-linecap="round" stroke-linejoin="round"/>
<path d="M13.9947 15.9834H14.0052" stroke="white" stroke-width="2" stroke-linecap="round" stroke-linejoin="round"/>
<path d="M13.9947 19.4834H14.0052" stroke="white" stroke-width="2" stroke-linecap="round" stroke-linejoin="round"/>
<path d="M9.67669 15.9834H9.68717" stroke="white" stroke-width="2" stroke-linecap="round" stroke-linejoin="round"/>
<path d="M9.67669 19.4834H9.68717" stroke="white" stroke-width="2" stroke-linecap="round" stroke-linejoin="round"/>
</svg>

<svg xmlns="http://www.w3.org/2000/svg" width="28" height="28" fill="none" stroke="#fff" xmlns:v="https://vecta.io/nano"><g stroke-width="1.5" stroke-miterlimit="10"><path d="M9.333 2.333v3.5m9.334-3.5v3.5M4.083 10.605h19.833" stroke-linecap="round" stroke-linejoin="round"/><path d="M24.5 9.917v9.917c0 3.5-1.75 5.833-5.833 5.833H9.333c-4.083 0-5.833-2.333-5.833-5.833V9.917c0-3.5 1.75-5.833 5.833-5.833h9.333c4.083 0 5.833 2.333 5.833 5.833z" stroke-linejoin="round"/></g><path d="M18.311 15.983h.011m-.011 3.5h.011m-4.327-3.5h.011m-.011 3.5h.011m-4.329-3.5h.01m-.01 3.5h.01" stroke-linejoin="round" stroke-linecap="round" stroke-width="2"/></svg>
